X: 6368
T: Cashmere Shawl, The
R: reel
M: 4/4
K: Bminor
~B3c BAFA|BABc dBcA|~B3c BAF2|1 afec dBcA:|2 afec dcde||
~f3g fece|fAdf eAce|~f3g fece|faaf eAce|
~f3g fece|fAdf eAce|fa~a2 fbbf|afec dBcA||

